X:67
T: Sirass rózsám, sirass
O: Trunk (Bákó), 1929
Q: "Parlando"
L:1/4
K:C
d/d/c/B/ c<d | d/d/c/B/ B<HA | 
d>c B/A/ (G/B/) A2 | A/A/B/A/ | G2 G z | 
c/B/A/G/ B<A | G/E/G/<F/ E D2 z |
A/B/A/^G/ F G | A/<A/ F/E/ D2 D z |

